X: 1
T: BLIVEN'S FAVORITE -- JIG
B: Ryan's Mammoth Collection of Fiddle Tunes
R: jig
M: 6/8
L: 1/8
Z: Contributed 20010701013151 by John Chambers jmchambers:rcn.net
K: G
(uG/F/) \
| DGG GAB | cAG FGA | {c}BAB cAF | AGG G2F \
| DGG GAB | {d}cAG FGA | {c}BAB cAF | AGG G2 :|
|: ud \
| def g2g | =fed cAF | Ggf gag | fdd d2e \
| {g}=fdf fed | cd_B ABc | d_ed d2c | _BGG G2 :|
